!!!COM:	la Rue, Pierre de
!!!CDT:	~1452///-1518/11/20
!!!OPR:	Missa O salutaris hostia
!!!ONM:	4
!!!OTL:	Sanctus
!!!AGN:	Mass; Sanctus
!!!SCT:	Rue1022d
!!!SCA:	Rue1022d
!!!voices-OPR:	4
!!!voices:	4
**kern	**kern	**kern	**kern
*Ivox	*Ivox	*Ivox	*Ivox
*I"Bassus	*I"Tenor	*I"Contra	*I"Discantus
*I'B	*I'T	*I'C	*I'D
*staff4	*staff3	*staff2	*staff1
*>[A,B,C,D,C]	*>[A,B,C,D,C]	*>[A,B,C,D,C]	*>[A,B,C,D,C]
*>A	*>A	*>A	*>A
*clefF4	*clefGv2	*clefGv2	*clefG2
*k[b-]	*k[b-]	*k[b-]	*k[b-]
*M3/1	*M3/1	*M3/1	*M3/1
*met(O)	*met(O)	*met(O)	*met(O)
!!section: Sanctus
!!!OMD: Sanctus
=1-	=1-	=1-	=1-
!	!	!	!LO:TX:X=-40:Z=8:t=4-ex-1 canon at the lower 5th/8ve/12th (2/6/7 breves)
0.r	0.r	0.r	0g
.	.	.	1g
=2	=2	=2	=2
0.r	0.r	0c	1c
.	.	.	1g
.	.	1c	2g/
.	.	.	[2a/
=3	=3	=3	=3
0.r	0.r	1F	2a/]
.	.	.	4g/
.	.	.	4f/
.	.	1c	1e
.	.	2c\	1r
.	.	[2d\	.
=4	=4	=4	=4
0.r	0.r	2d\]	1a
.	.	4c\	.
.	.	4B-\	.
.	.	1A	1cc
.	.	1r	1b-
=5	=5	=5	=5
0.r	0.r	1d	2a/
.	.	.	2dd\
.	.	1f	2a/
.	.	.	2.dd\
.	.	1e	.
.	.	.	4cc#i\
.	.	.	2cc#i\
=6	=6	=6	=6
0.r	0.r	2d\	2dd\
.	.	2g\	1b-
.	.	2d\	.
.	.	2.g\	4a/
.	.	.	4g/
.	.	.	1a
.	.	4f#i\	.
.	.	2f#i\	.
=7	=7	=7	=7
0.r	0G	2g\	0g
.	.	1e	.
.	.	4d\	.
.	.	4c\	.
.	1G	1d	1r
=8	=8	=8	=8
0C	1C	0c	0.r
.	1G	.	.
1C	2G/	1r	.
.	[2A/	.	.
=9	=9	=9	=9
1FF	2A/]	0.r	0.r
.	4G/	.	.
.	4F/	.	.
1C	1E	.	.
2C/	1r	.	.
[2D\	.	.	.
=10	=10	=10	=10
2D\]	1A	0.r	0.r
4C/	.	.	.
4BB-/	.	.	.
1AA	1c	.	.
1r	1B-	.	.
=11	=11	=11	=11
1D	2A/	0.r	0.r
.	2d\	.	.
1F	2A/	.	.
.	2.d\	.	.
1E	.	.	.
.	4c#i\	.	.
.	2c#i\	.	.
=12	=12	=12	=12
2D\	2d\	0.r	0.r
2G\	1B-	.	.
2D\	.	.	.
2.G\	4A/	.	.
.	4G/	.	.
.	1A	.	.
4F#i\	.	.	.
2F#i\	.	.	.
=13	=13	=13	=13
2G\	0G	0.r	1.g
1E	.	.	.
4D\	.	.	2g/
4C/	.	.	.
1D	1r	.	1f
=14	=14	=14	=14
0C	0.r	1.c	2e/
.	.	.	1g
.	.	2c\	4f/
.	.	.	4e/
1r	.	1B-	1d
=15	=15	=15	=15
0.r	0.r	2A/	1c
.	.	1c	.
.	.	.	1.g
.	.	4B-\	.
.	.	4A/	.
.	.	1G	.
.	.	.	2g/
=16	=16	=16	=16
0.r	0.r	1F	2a/
.	.	.	1cc
.	.	1.c	.
.	.	.	4b-\
.	.	.	4a/
.	.	.	1g
.	.	2c\	.
=17	=17	=17	=17
0.r	0.r	2d\	2r
.	.	1f	1a
.	.	4e\	2f/
.	.	4d\	.
.	.	1c	2g/
.	.	.	2e/
=18	=18	=18	=18
0.r	0.r	2r	2f/
.	.	1d	2d/
.	.	.	1f
.	.	2B-\	.
.	.	2c\	1e
.	.	2A/	.
=19	=19	=19	=19
0.r	1.G	2B-\	0d
.	.	2G/	.
.	.	1B-	.
.	2G/	.	.
.	1F	1A	1r
=20	=20	=20	=20
1.C	2E/	0G	0.r
.	1G	.	.
2C/	4F/	.	.
.	4E/	.	.
1BB-	1D	1r	.
=21	=21	=21	=21
2AA/	1C	0.r	2r
1C	.	.	1g
.	1.G	.	.
4BB-/	.	.	2a/
4AA/	.	.	.
1GG	.	.	1b-
.	2G/	.	.
=22	=22	=22	=22
1FF	2A/	2r	1a
.	1c	1c	.
1.C	.	.	0g
.	4B-\	2d\	.
.	4A/	.	.
.	1G	1e	.
2C/	.	.	.
=23	=23	=23	=23
2D\	2r	1d	1f
1F	1A	.	.
.	.	0c	2.a/
4E\	2F/	.	.
4D\	.	.	4g/
1C	2G/	.	2e/
.	2E/	.	2g/
=24	=24	=24	=24
2r	2F/	1B-	2d/
1D	2D/	.	2.f/
.	1F	2.d\	.
.	.	.	4e/
2BB-/	.	.	2d/
.	.	4c\	.
2C/	1E	2A/	2e/
2AA/	.	2c\	2c/
=25	=25	=25	=25
2BB-/	0D	2G/	0d
2GG/	.	2.B-\	.
1BB-	.	.	.
.	.	4A/	.
.	.	2G/	.
1AA	1r	2A/	1a
.	.	2F/	.
=26	=26	=26	=26
0GG	0.r	0G	2d/
.	.	.	2.dd\
.	.	.	4cc\
.	.	.	4b-\
.	.	.	4g/
1r	.	1d	1a
=27	=27	=27	=27
0.r	2r	2G/	2g/
.	1G	2.g\	1b-
.	.	4f\	.
.	2A/	4e\	2a/
.	.	4c\	.
.	1B-	1d	2f/
.	.	.	2g/
=28	=28	=28	=28
2r	1A	2c\	2a/
1C	.	1e	4g/
.	.	.	4f/
.	0G	.	2e/
2D\	.	2d\	2f/
1E-i	.	2B-\	1g
.	.	2c\	.
=29	=29	=29	=29
1D	1F	2d\	2r
.	.	4c\	2.a/
.	.	4B-\	.
0C	2.A/	2A/	.
.	.	.	4g/
.	.	2B-\	1e
.	4G/	.	.
.	2E/	1c	.
.	2G/	.	2e/
=30	=30	=30	=30
1BB-	2D/	2r	2f/
.	2.F/	2.d\	2d/
2.D\	.	.	2.f/
.	4E/	4c\	.
.	2D/	1A	.
4C/	.	.	4e/
2AA/	2E/	.	2c/
2C/	2C/	2A/	2e/
=31	=31	=31	=31
2GG/	0D	2B-\	2d/
2.BB-/	.	2G/	2.dd\
.	.	2.B-\	.
4AA/	.	.	4cc\
2GG/	.	.	2b-\
.	.	4A/	.
2AA/	1A	2F/	4a/
.	.	.	4b-\
2FF/	.	2A/	4cc\
.	.	.	4a/
=32	=32	=32	=32
0GG	2D/	2G/	4b-\
.	.	.	4g/
.	2.d\	2.g\	2.b-\
.	4c\	4f\	4a/
.	4B-\	2e\	2.g/
.	4G/	.	.
1D	1A	[1dl	.
.	.	.	8f#i/L
.	.	.	8e/J
.	.	.	2f#i/
=33	=33	=33	=33
0.GGl	0.Gl	0.d]	0.gl
!!LO:LB:i:g=z
=34||	=34||	=34||	=34||
*>B	*>B	*>B	*>B
*clefF4	*clefGv2	*clefGv2	*clefG2
*k[b-]	*k[b-]	*k[b-]	*k[b-]
*M2/1	*M2/1	*M2/1	*M2/1
*met(C2)	*met(C2)	*met(C2)	*met(C2)
!	!LO:TX:X=-40:Z=8:t=Canon at the lower fifth (1.5 breves)	!	!
!!section: Pleni sunt celi
!!!OMD: Pleni sunt celi
0r	0G	0r	0r
=35.	=35.	=35.	=35.
1r	1A	0r	0r
[1C	2G/	.	.
.	[2A/	.	.
=36	=36	=36	=36
1C]	4A/]	0r	0r
.	4B-\	.	.
.	4c\	.	.
.	4A/	.	.
1D	1B-	.	.
=37.	=37.	=37.	=37.
2C/	2.A/	0r	0r
2.D\	.	.	.
.	8G/L	.	.
.	8A/J	.	.
.	2B-\	.	.
4E\	.	.	.
4F\	[2d\	.	.
4D\	.	.	.
=38	=38	=38	=38
1E	2d\]	0r	0r
.	2c#i\	.	.
2.D\	1d	.	.
8C/L	.	.	.
8D/J	.	.	.
=39.	=39.	=39.	=39.
2E\	2r	0r	0r
1G	2d\	.	.
.	2c\	.	.
2F#i\	2A/	.	.
=40	=40	=40	=40
1G	1B-	0r	0r
2r	2r	.	.
2G\	2B-\	.	.
=41.	=41.	=41.	=41.
2F\	2A/	0r	0r
2D\	2F/	.	.
1E-i	1G	.	.
=42	=42	=42	=42
2r	2r	0r	0r
2E-i\	2G/	.	.
2D\	2F/	.	.
2BB-/	2D/	.	.
=43.	=43.	=43.	=43.
1C	1E-i	0r	0r
2r	2D/	.	.
2C/	[2G/	.	.
=44	=44	=44	=44
2BB-/	2G/]	0r	0r
2GG/	2.G/	.	.
1AA	.	.	.
.	4F#i/	.	.
.	2F#i/	.	.
=45.	=45.	=45.	=45.
2GG/	1G	0r	0r
1C	.	.	.
.	1A	.	.
[2C/	.	.	.
=46	=46	=46	=46
4C/]	2G/	0r	0r
4BB-/	.	.	.
2BB-/	2B-\	.	.
1C	4A/	.	.
.	4G/	.	.
.	[2c\	.	.
=47.	=47.	=47.	=47.
1D	2c\]	0r	0r
.	2Bni\	.	.
2C/	1c	.	.
2E\	.	.	.
=48	=48	=48	=48
4D\	1r	0r	0r
4C/	.	.	.
1F	.	.	.
.	1c	.	.
2E\	.	.	.
=49.	=49.	=49.	=49.
1F	1c	0r	0r
1r	1A	.	.
=50	=50	=50	=50
1F	2A/	0r	0r
.	1c	.	.
1F	.	.	.
.	4B-\	.	.
.	4A/	.	.
=51.	=51.	=51.	=51.
1D	2B-\	0r	0r
.	2A/	.	.
2D\	2F/	.	.
[2F\	[2A/	.	.
=52	=52	=52	=52
2F\]	2A/]	0r	0r
4E-i\	4G/	.	.
4D\	4F/	.	.
2E-i\	2G/	.	.
2D\	2F/	.	.
=53.	=53.	=53.	=53.
2BB-/	2D/	0r	0r
1D	1F	.	.
4C/	4E/	.	.
4BB-/	4D/	.	.
=54	=54	=54	=54
2C/	2E/	0r	0r
2BB-/	2F/	.	.
2GG/	2G/	.	.
[2BB-/	[2d\	.	.
=55.	=55.	=55.	=55.
2BB-/]	2d\]	0r	0r
4AA/	4c\	.	.
4GG/	4B-\	.	.
2AA/	2c\	.	.
2BB-/	2d\	.	.
=56	=56	=56	=56
2C/	1G	0r	0r
1G	.	.	.
.	1B-	.	.
4F\	.	.	.
4E\	.	.	.
=57.	=57.	=57.	=57.
2F\	2A/	0r	0r
2G\	1G	.	.
1C	.	.	.
.	[2c\	.	.
=58	=58	=58	=58
1E	4c\]	0r	0r
.	4B-\	.	.
.	4A/	.	.
.	4G/	.	.
2D\	4F/	.	.
.	4G/	.	.
[2C/	4A/	.	.
.	4B-\	.	.
=59.	=59.	=59.	=59.
2C/]	2A/	0r	0r
2.F\	2D/	.	.
.	2r	.	.
4E\	.	.	.
4D\	2A/	.	.
4C/	.	.	.
=60	=60	=60	=60
4BB-/	2B-\	0r	0r
4C/	.	.	.
4D\	4A/	.	.
4E-i\	4G/	.	.
2D\	2F/	.	.
2GG/	[2B-\	.	.
=61.	=61.	=61.	=61.
2r	4B-\]	0r	0r
.	4A/	.	.
2D\	4G/	.	.
.	4F/	.	.
2E-i\	2.G/	.	.
4D\	.	.	.
4C/	4F/	.	.
=62	=62	=62	=62
2BB-/	2D/	0r	0r
2.E-i\	2.G/	.	.
4D\	4F/	.	.
4C/	4E-i/	.	.
4BB-/	4D/	.	.
=63.	=63.	=63.	=63.
2.C/	1E-i	0r	0r
4BB-/	.	.	.
2GG/	2D/	.	.
[2C/	[2A/	.	.
=64	=64	=64	=64
4C/]	2A/]	0r	0r
4BB-/	.	.	.
4AA/	2.G/	.	.
4GG/	.	.	.
1AA	.	.	.
.	4F#i/	.	.
.	2F#i/	.	.
=65.	=65.	=65.	=65.
0GGl	0Gl	0r	0r
!!LO:LB:i:g=z
=66||	=66||	=66||	=66||
*>C	*>C	*>C	*>C
*clefF4	*clefGv2	*clefGv2	*clefG2
*k[b-]	*k[b-]	*k[b-]	*k[b-]
*M2/1	*M2/1	*M2/1	*M2/1
*met(C2)	*met(C2)	*met(C2)	*met(C2)
!!section: Osanna
!!!OMD: Osanna
!	!	!	!LO:TX:X=-40:Z=8:t=4-ex-1 canon at the lower 5th/8ve/12th (2/6/8 breves)
0r	0r	0r	0g
=67.	=67.	=67.	=67.
0r	0r	0r	0g
=68	=68	=68	=68
0r	0r	0c	[0e
=69.	=69.	=69.	=69.
0r	0r	0c	1e]
.	.	.	1e
=70	=70	=70	=70
0r	0r	[0A	1.f
.	.	.	2g/
=71.	=71.	=71.	=71.
0r	0r	1A]	0a
.	.	1A	.
=72	=72	=72	=72
0r	0G	1.B-	0d
.	.	2c\	.
=73.	=73.	=73.	=73.
0r	0G	0d	1r
.	.	.	1d
=74	=74	=74	=74
0C	[0E	0G	1e
.	.	.	[1g
=75.	=75.	=75.	=75.
0C	1E]	1r	2g/]
.	.	.	2f/
.	1E	1G	2e/
.	.	.	2d/
=76	=76	=76	=76
[0AA	1.F	1A	[0c
.	.	[1c	.
.	2G/	.	.
=77.	=77.	=77.	=77.
1AA]	0A	2c\]	1c]
.	.	2B-\	.
1AA	.	2A/	1c
.	.	2G/	.
=78	=78	=78	=78
1.BB-	0D	[0F	1d
.	.	.	[1f
2C/	.	.	.
=79.	=79.	=79.	=79.
0D	1r	1F]	1f]
.	1D	1F	1f
=80	=80	=80	=80
0GG	1E	1G	1e
.	[1G	[1B-	1d
=81.	=81.	=81.	=81.
1r	2G/]	1B-]	0g
.	2F/	.	.
1GG	2E/	1B-	.
.	2D/	.	.
=82	=82	=82	=82
1AA	[0C	1A	[0e
[1C	.	1G	.
=83.	=83.	=83.	=83.
2C/]	1C]	0c	0e]
2BB-/	.	.	.
2AA/	1C	.	.
2GG/	.	.	.
=84	=84	=84	=84
[0FF	1D	[0A	1r
.	[1F	.	[1a
=85.	=85.	=85.	=85.
1FF]	1F]	0A]	1a]
1FF	1F	.	1a
=86	=86	=86	=86
1GG	1E	1r	1g
[1BB-	1D	[1d	1f
=87.	=87.	=87.	=87.
1BB-]	0G	1d]	0d
1BB-	.	1d	.
=88	=88	=88	=88
1AA	[0E	1c	1e
1GG	.	1B-	[1g
=89.	=89.	=89.	=89.
0C	0E]	0G	0g]
=90	=90	=90	=90
[0AA	1r	1A	1f
.	[1A	[1c	1e
=91.	=91.	=91.	=91.
0AA]	1A]	0c]	1.cc
.	1A	.	.
.	.	.	2b-\
=92	=92	=92	=92
1r	1G	1B-	1g
[1D	1F	1A	[1a
=93.	=93.	=93.	=93.
1D]	0D	1.f	2a/]
.	.	.	2g/
1D	.	.	1f
.	.	2e\	.
=94	=94	=94	=94
1C	1E	1c	1e
1BB-	[1G	[1d	[1d
=95.	=95.	=95.	=95.
0GG	0G]	2d\]	1d]
.	.	2c\	.
.	.	1B-	1g
=96	=96	=96	=96
1AA	1F	1A	1r
[1C	1E	[1G	1g
=97.	=97.	=97.	=97.
0C]	1.c	1G]	1g
.	.	1c	1a
.	2B-\	.	.
=98	=98	=98	=98
1BB-	1G	1r	1d
1AA	[1A	1c	2a/
.	.	.	[2cc\
=99.	=99.	=99.	=99.
1.F	2A/]	1c	2cc\]
.	2G/	.	2b-\
.	1F	1d	1a
2E\	.	.	.
=100	=100	=100	=100
1C	1E	1G	1g
[1D	[1D	2d\	2f/
.	.	[2f\	2d/
=101.	=101.	=101.	=101.
2D\]	1D]	2f\]	1a
2C/	.	2e\	.
1BB-	1G	1d	1g
=102	=102	=102	=102
1AA	1r	1c	1a
[1GG	1G	2B-\	[1b-
.	.	2G/	.
=103.	=103.	=103.	=103.
1GG]	1G	1d	1b-]
1C	1A	1c	2a/
.	.	.	2g/
=104	=104	=104	=104
1r	1D	1d	2.f/
.	.	.	4g/
1C	2A/	[1e-i	4a/
.	.	.	4b-\
.	[2c\	.	2a/
=105.	=105.	=105.	=105.
1C	2c\]	1e-]	2a/
.	2B-\	.	2g/
1D	1A	[1dl	4f#i/
.	.	.	4e/
.	.	.	2f#i/
=106	=106	=106	=106
0GGl	0Gl	0d]	0gl
!!LO:LB:i:g=z
!!LO:TX:rj:i:Y=40:t=fine
=107||	=107||	=107||	=107||
*>D	*>D	*>D	*>D
*clefF4	*clefGv2	*clefGv2	*clefG2
*k[b-]	*k[b-]	*k[b-]	*k[b-]
*M2/1	*M2/1	*M2/1	*M2/1
*met(C2)	*met(C2)	*met(C2)	*met(C2)
!!section: Benedictus
!!!OMD: Benedictus
!	!	!	!LO:TX:X=-40:Z=8:t=Canon at the lower fifth (one breve)
0r	0r	0r	1g
.	.	.	2e/
.	.	.	2f/
=108.	=108.	=108.	=108.
0r	0r	1c	2g/
.	.	.	2.a/
.	.	2A/	.
.	.	.	4g/
.	.	2B-\	2g/
=109	=109	=109	=109
0r	0r	2c\	2a/
.	.	2.d\	2f/
.	.	.	1e
.	.	4c\	.
.	.	2c\	.
=110.	=110.	=110.	=110.
0r	0r	2d\	1d
.	.	2B-\	.
.	.	1A	2r
.	.	.	2a/
=111	=111	=111	=111
0r	0r	1G	2b-\
.	.	.	2.b-\
.	.	2r	.
.	.	.	4g/
.	.	2d\	4a/
.	.	.	4b-\
=112.	=112.	=112.	=112.
0r	0r	2e\	2cc\
.	.	2.e\	2.cc\
.	.	4c\	4a/
.	.	4d\	4b-\
.	.	4e\	4cc\
=113	=113	=113	=113
0r	0r	2f\	2dd\
.	.	2.f\	4cc\
.	.	.	4b-\
.	.	.	1a
.	.	4d\	.
.	.	4e\	.
.	.	4f\	.
=114.	=114.	=114.	=114.
0r	0r	2g\	1g
.	.	4f\	.
.	.	4e\	.
.	.	1d	2r
.	.	.	2f/
=115	=115	=115	=115
0r	0r	1c	2g/
.	.	.	2a/
.	.	2r	2.b-\
.	.	2B-\	.
.	.	.	4g/
=116.	=116.	=116.	=116.
0r	0r	2c\	1a
.	.	2d\	.
.	.	2.e-i\	2g/
.	.	.	[2cc\
.	.	4c\	.
=117	=117	=117	=117
0r	0r	1d	4cc\]
.	.	.	4b-\
.	.	.	2b-\
.	.	2c\	2cc\
.	.	[2f\	[2a/
=118.	=118.	=118.	=118.
0r	0r	4f\]	4a/]
.	.	4e\	4g/
.	.	2e\	2g/
.	.	2f\	2a/
.	.	[2d\	[2f/
=119	=119	=119	=119
0r	0r	4d\]	4f/]
.	.	4c\	4e/
.	.	2c\	2e/
.	.	2d\	4f/
.	.	.	4d/
.	.	[2B-\	[2dd\
=120.	=120.	=120.	=120.
0r	0r	4B-\]	4dd\]
.	.	4A/	4cc\
.	.	2A/	2cc\
.	.	4B-\	2dd\
.	.	4G/	.
.	.	[2g\	4cc\
.	.	.	4b-\
=121	=121	=121	=121
0r	0r	4g\]	4a/
.	.	4f\	4g/
.	.	2f\	2a/
.	.	2g\	2.g/
.	.	4f\	.
.	.	4e\	4a/
=122.	=122.	=122.	=122.
0r	0r	4d\	2b-\
.	.	4c\	.
.	.	2d\	1a
.	.	2.c\	.
.	.	.	[2g/
.	.	4d\	.
=123	=123	=123	=123
0r	0r	2e\	2g/]
.	.	1d	4f/
.	.	.	4e/
.	.	.	4d/
.	.	.	4e/
.	.	[2c\	4f/
.	.	.	4g/
=124.	=124.	=124.	=124.
0r	0r	2c\]	4a/
.	.	.	4b-\
.	.	4B-\	2cc\
.	.	4A/	.
.	.	4G/	2b-\
.	.	4A/	.
.	.	4B-\	[2a/
.	.	4c\	.
=125	=125	=125	=125
0r	0r	4d\	2a/]
.	.	4e\	.
.	.	2f\	4g/
.	.	.	4f/
.	.	2e\	2g/
.	.	[2d\	2a/
=126.	=126.	=126.	=126.
0r	0r	2d\]	2f/
.	.	4c\	4e/
.	.	4B-\	4d/
.	.	2c\	2.e/
.	.	2d\	.
.	.	.	4f/
=127	=127	=127	=127
0r	0r	2B-\	2d/
.	.	4A/	2.g/
.	.	4G/	.
.	.	2.A/	.
.	.	.	4f#i/
.	.	.	2f#i/
.	.	4B-\	.
=128.	=128.	=128.	=128.
0r	0r	0Gl	0gl
!!LO:TX:i:Y=40:rj:t=Osanna ut supra
=||	=||	=||	=||
*-	*-	*-	*-
!!!RDF**kern: l=long note in original notation
!!!RDF**kern: i=editorial accidental
!!!ENC:	Chris Gage 04-15-2013
!!!END:	2013/07/28/
!!!EED:	Jesse Rodin
!!!EEV:	2013/08/02/
!!!ONB:	Translated from MusicXML and edited on 2013/08/02/ by Craig Sapp
!!muse2ps: T^@{OPR}^u^@{ONM}{. }@{OTL}^C^@{COM}^i2I150v85,85,85,150c160
